X: 1821
T: Söylen Ol Âfete
C: Bolâhenk Nuri Bey
O: Turkey
F: http://compmusic.upf.edu/node/140
N: beyati--agirsemai--agir_aksaksemai--soylen_ol--bolahenk_nuri_bey
N: makam= beyati
N: form= agirsemai
N: usul= agir_aksaksemai = 10/4
M: 10/4
L: 1/16
K: C _2/4B   
Q: 1/4=60
%%MIDI tuningsystem comma53
c2d6 f3e e6ed eddc d2e2 d2e4d2 d3c  | \
w:  Ah  *  söy *  len  *  *  ol  *  *  *  *  *  a  | 
edc4B2 d4 edc4d2 c3B BABA A8 z4  | 
w:  *  *  *  *  fe te  *  *  *  dün *  *  *  *  *  ya  | 
z8 G4 A2B2 c2d2 e3d c2d2 c2e2 d2cB c2BA  | \
w:  yı  ha *  *  *  rab   | 
A6z2 fefg e6ed d3c cfed c2d6 z4  | 
w:  *  ey *  *  *  le *  *  me *  *  *  *  *  sin    | 
z8 e4 f6e2 f2e2 f2g2 f2g2 f2e2 e2f2  | \
w:  Ca nım  *  ya  *  *  le  lel   | 
e2d4c2 d2e2 f2e4d2 d3c d2e2 edcB A4 z4  | 
w:  *  *  *  le  *  lel  *  *  lel  *  le  li  vay    | 
z8 g2f2 f2e4d2 eddc d2e2 edcB A2c2 B2d2  | \
w:  *  *  rim  *  *  te  *  *  *  *  re  lel   | 
c2e2 dccB d4 _7/8edc4B2 c2B4A2 c2BA G4 z4  | 
w:  *  *  *  *  *  *  le  le  *  *  *  le  *  li  vay    | 
z8 G4 A6G2 z2c2 B2c2 d8 e2f2  | g2f2 e2d2 d3c e3d c2d2 c3B BcBA A8 z4  | 
w:  Bir  şi *  rin  *  ze ban   |  *  *  *  *  bir  *  ka *  *  *  şı  *  ke *  *  *  man    | 
z8 g4 a6c'2 c'3_b b3a gagf f4 e2d2  | \
w:  Bir  a *  fet_ *  i  *  can   | 
g^f_7/8ed c2_1/4B2 e3d d2e2 d2c2 c2B2 B2BA A8 z4  | 
w:  *  *  *  *  *  *  müm *  taz_ *  *  *  ı  *  *  ci *  han    | 
z8 g4 g4 a4 a6z2 a2c'2 b2a2 a2b2  | \
w:  Ge ce *  ler  her   | 
ag^fe =f4 e2f2 g4 f2e2 a6g2 ag^fe d4 e2=fe  | 
w:  *  *  *  *  *  dem  *  *  *  *  ağ *  yar   | 
d6z2 dcBc d6z2 e4 ^f4 g8 =f2e2  | \
w:  *  i *  *  *  le dir  *  hep   | 
d2c2 d2a2 a2g2 f6e2 e2d2 e2f2 d8 z4  | 
w:  *  *  *  *  bi *  li *  riz  *  *  *  vay    | 
z8 e4 f6e2 f2e2 f2g2 f2g2 f2e2 e2f2  | \
w:  Ca nım  *  ya  *  *  le  lel   | 
e2d4c2 d2e2 f2e4d2 d3c d2e2 edcB A4 z4  | 
w:  *  *  *  le  *  lel  *  *  lel  *  le  li  vay    | 
z8 g2f2 f2e4d2 eddc d2e2 edcB A2c2 B2d2  | \
w:  *  *  rim  *  *  te  *  *  *  *  re  lel   | 
c2e2 dccB d4 _7/8edc4B2 c2B4A2 c2BA G4 z4  | 
w:  *  *  *  *  *  *  le  le  *  *  *  le  *  li  vay    | 
z8 G4 A6G2 z2c2 B2c2 d8 e2f2  | g2f2 e2d2 d3c e3d c2d2 c3B BcBA A8 z4  | 
w:  Bir  şi *  rin  *  ze ban   |  *  *  *  *  bir  *  ka *  *  *  şı  *  ke *  *  *  man    | 
z8 g4 a6c'2 c'3_b b3a gagf f4 e2d2  | \
w:  Bir  a *  fet_ *  i  *  can   | 
g^f_7/8ed c2_1/4B2 e3d d2e2 d2c2 c2B2 B2BA A8 z4  | 
w:  *  *  *  *  *  *  müm *  taz_ *  *  *  ı  *  *  ci *  han    | 
|


